Yosa-Max/apps/scalable/preferences-desktop-default-applications.svg

<?xml version="1.0" encoding="UTF-8"?>
<svg id="svg942" width="48" height="48" version="1.1" viewBox="0 0 12.7 12.7" xmlns="http://www.w3.org/2000/svg">
 <defs id="defs936">
  <linearGradient id="b" x1="399.9939" x2="399.9939" y1="545.13873" y2="518.13873" gradientTransform="matrix(.43467295 0 0 .43467295 -167.76756 -224.80818)" gradientUnits="userSpaceOnUse">
   <stop id="stop7" stop-color="#197ff1" offset="0"/>
   <stop id="stop9" stop-color="#21c6fb" offset="1"/>
  </linearGradient>
 </defs>
 <path id="circle12" d="m12.435387 6.3499875a6.085403 6.085403 0 0 1-6.0854033 6.0854025 6.085403 6.085403 0 0 1-6.085403-6.0854025 6.085403 6.085403 0 0 1 6.085403-6.085403 6.085403 6.085403 0 0 1 6.0854033 6.085403z" style="fill:url(#b);stroke-width:.5650748"/>
 <path id="path975" d="m9.1241743 5.4798802c0-0.082262-0.062211-0.1333792-0.1867885-0.1533922l-1.6737679-0.2433895-0.7502223-1.5171426c-0.0421952-0.091143-0.0967092-0.1366941-0.1633784-0.1366941-0.066669 0-0.1211424 0.045552-0.1633781 0.1366941l-0.7502634 1.5171426-1.6738497 0.2433895c-0.1244571 0.020012-0.1867063 0.07113-0.1867063 0.1533922 0 0.046697 0.027789 0.1000651 0.083367 0.1600633l1.213714 1.1803591-0.2867304 1.6671782c-0.00446 0.031144-0.00667 0.053408-0.00667 0.06671 0 0.046694 0.011663 0.08611 0.034992 0.1184002 0.023329 0.032246 0.058321 0.048335 0.1050172 0.048335 0.040026 0 0.084472-0.013261 0.1333792-0.039988l1.4970926-0.7869722 1.4972109 0.786974c0.046738 0.026689 0.091185 0.039988 0.1333387 0.039988 0.044569 0 0.078415-0.016042 0.1017428-0.048336 0.023286-0.032246 0.034952-0.071702 0.034952-0.1183998 0-0.028894-0.00108-0.051116-0.00336-0.06671l-0.2867726-1.6671794 1.2103576-1.1803591c0.057872-0.057788 0.086723-0.1111561 0.086724-0.1600633z" style="fill:#ffffff;stroke-width:.06175921"/>
</svg>

<?xml version="1.0" encoding="UTF-8" standalone="no"?>
<svg
   xmlns:dc="http://purl.org/dc/elements/1.1/"
   xmlns:cc="http://creativecommons.org/ns#"
   xmlns:rdf="http://www.w3.org/1999/02/22-rdf-syntax-ns#"
   xmlns:svg="http://www.w3.org/2000/svg"
   xmlns="http://www.w3.org/2000/svg"
   xmlns:xlink="http://www.w3.org/1999/xlink"
   xmlns:sodipodi="http://sodipodi.sourceforge.net/DTD/sodipodi-0.dtd"
   xmlns:inkscape="http://www.inkscape.org/namespaces/inkscape"
   width="48"
   height="48"
   viewBox="0 0 12.7 12.7"
   version="1.1"
   id="svg942"
   sodipodi:docname="preferences-desktop-default-applications.svg"
   inkscape:version="0.92.2 2405546, 2018-03-11">
  <sodipodi:namedview
     pagecolor="#ffffff"
     bordercolor="#666666"
     borderopacity="1"
     objecttolerance="10"
     gridtolerance="10"
     guidetolerance="10"
     inkscape:pageopacity="0"
     inkscape:pageshadow="2"
     inkscape:window-width="1366"
     inkscape:window-height="699"
     id="namedview15"
     showgrid="false"
     inkscape:zoom="10.586957"
     inkscape:cx="5.4866428"
     inkscape:cy="23.999997"
     inkscape:window-x="0"
     inkscape:window-y="0"
     inkscape:window-maximized="1"
     inkscape:current-layer="svg942" />
  <defs
     id="defs936">
    <linearGradient
       gradientTransform="matrix(0.26458333,0,0,0.26458333,0.01815154,284.27625)"
       gradientUnits="userSpaceOnUse"
       y2="14.205187"
       x2="23.499022"
       y1="45.427723"
       x1="24.049976"
       id="linearGradient991"
       xlink:href="#a-3" />
    <linearGradient
       y2="2.3564889"
       y1="52.199436"
       x2="-75.259552"
       x1="-74.929466"
       gradientUnits="userSpaceOnUse"
       gradientTransform="matrix(1.0749904,0,0,1.1792904,57.227964,-9.7964761)"
       id="a-3">
      <stop
         id="stop2-6"
         stop-color="#ffa400"
         offset="0" />
      <stop
         id="stop4-7"
         stop-color="#fd0"
         offset="1" />
    </linearGradient>
    <linearGradient
       gradientUnits="userSpaceOnUse"
       y2="14.205187"
       x2="23.499022"
       y1="45.427723"
       x1="24.049976"
       id="linearGradient991-3"
       xlink:href="#a-3"
       gradientTransform="matrix(0.26458333,0,0,0.26458333,-6.9238017,-2.1224635)" />
    <linearGradient
       id="b"
       gradientUnits="userSpaceOnUse"
       x1="399.9939"
       x2="399.9939"
       y1="545.13873"
       y2="518.13873">
      <stop
         offset="0"
         stop-color="#197ff1"
         id="stop7" />
      <stop
         offset="1"
         stop-color="#21c6fb"
         id="stop9" />
    </linearGradient>
    <linearGradient
       id="a"
       gradientUnits="userSpaceOnUse"
       x1="399.57144"
       x2="399.57144"
       y1="545.79797"
       y2="517.79797">
      <stop
         offset="0"
         stop-color="#3889e9"
         id="stop2" />
      <stop
         offset="1"
         stop-color="#5ea5fb"
         id="stop4" />
    </linearGradient>
  </defs>
  <metadata
     id="metadata939">
    <rdf:RDF>
      <cc:Work
         rdf:about="">
        <dc:format>image/svg+xml</dc:format>
        <dc:type
           rdf:resource="http://purl.org/dc/dcmitype/StillImage" />
        <dc:title />
      </cc:Work>
    </rdf:RDF>
  </metadata>
  <g
     style="display:inline"
     id="layer2-5"
     transform="matrix(0.26458333,0,0,0.26458333,-6.9238017,-2.1224635)" />
  <g
     style="display:inline"
     id="layer1-3"
     transform="matrix(0.26458333,0,0,0.26458333,-6.9238017,-2.1224635)" />
  <g
     style="stroke-width:1.29999995;enable-background:new"
     transform="matrix(0.43467295,0,0,0.43467295,-167.76756,-224.80818)"
     id="g18">
    <circle
       style="fill:url(#b)"
       cx="400.57138"
       cy="531.79791"
       r="13.999958"
       id="circle12" />
    <circle
       style="fill:none"
       cx="400.57144"
       cy="531.79797"
       r="13.999958"
       id="circle14" />
    <circle
       style="fill:url(#a)"
       cx="400.57138"
       cy="531.79791"
       r="0"
       id="circle16" />
  </g>
  <path
     inkscape:connector-curvature="0"
     d="m 9.1241743,5.4798802 c 0,-0.082262 -0.062211,-0.1333792 -0.1867885,-0.1533922 L 7.2636179,5.0830985 6.5133956,3.5659559 C 6.4712004,3.4748129 6.4166864,3.4292618 6.3500172,3.4292618 c -0.066669,0 -0.1211424,0.045552 -0.1633781,0.1366941 L 5.4363757,5.0830985 3.762526,5.326488 C 3.6380689,5.3465 3.5758197,5.397618 3.5758197,5.4798802 c 0,0.046697 0.027789,0.1000651 0.083367,0.1600633 l 1.213714,1.1803591 -0.2867304,1.6671782 c -0.00446,0.031144 -0.00667,0.053408 -0.00667,0.06671 0,0.046694 0.011663,0.08611 0.034992,0.1184002 0.023329,0.032246 0.058321,0.048335 0.1050172,0.048335 0.040026,0 0.084472,-0.013261 0.1333792,-0.039988 l 1.4970926,-0.7869722 1.4972109,0.786974 c 0.046738,0.026689 0.091185,0.039988 0.1333387,0.039988 0.044569,0 0.078415,-0.016042 0.1017428,-0.048336 0.023286,-0.032246 0.034952,-0.071702 0.034952,-0.1183998 0,-0.028894 -0.00108,-0.051116 -0.00336,-0.06671 L 7.8270931,6.8203026 9.0374507,5.6399435 c 0.057872,-0.057788 0.086723,-0.1111561 0.086724,-0.1600633 z"
     id="path975"
     style="fill:#ffffff;stroke-width:0.06175921" />
</svg>
